build/images/star.svg

<svg width="181" height="181" viewBox="0 0 181 181" fill="none" xmlns="http://www.w3.org/2000/svg">
<path fill-rule="evenodd" clip-rule="evenodd" d="M90.0582 0.233337L98.5194 26.2564L113.432 3.30855L114.865 30.6329L135.213 12.3243L129.52 39.0882L153.917 26.666L141.486 51.0457L168.269 45.3569L152.739 62.5926H175.947L153.796 78.6756L180.244 85.7574L154.682 95.5631L178.394 109.244L151.164 112.104L170.525 131.452L143.481 127.171L157.171 150.868L135.969 141.434L143.141 163.492L120.989 147.409L122.422 174.734L105.191 153.469L99.4982 180.233L88.3615 155.237L75.931 179.616L71.6477 152.591L53.3263 172.925L55.7524 149.859L36.9757 163.492L45.4367 137.469L19.8749 147.275L34.7876 124.327L7.55672 127.187L27.9048 108.879L0.86111 104.598L25.2575 92.1762L0.243896 81.0471L22.9453 76.225L4.16894 62.5926H31.5499L14.3187 41.3285L40.7664 48.4102L29.6296 23.4139L53.3423 37.095L49.059 10.0696L68.42 29.4174L71.2821 2.20542L82.8863 22.2907L90.0582 0.233337Z" fill="#37E185"/>
</svg>

<svg width="181" height="181" fill="none" xmlns="http://www.w3.org/2000/svg"><path fill-rule="evenodd" clip-rule="evenodd" d="M90.058.233l8.461 26.023L113.432 3.31l1.433 27.324 20.348-18.309-5.693 26.764 24.397-12.422-12.431 24.38 26.783-5.69-15.53 17.237h23.208l-22.151 16.083 26.448 7.081-25.562 9.806 23.712 13.681-27.23 2.86 19.361 19.348-27.044-4.281 13.69 23.697-21.202-9.434 7.172 22.058-22.152-16.083 1.433 27.325-17.231-21.265-5.693 26.764-11.136-24.996-12.431 24.379-4.283-27.025-18.322 20.334 2.426-23.066-18.776 13.633 8.46-26.023-25.561 9.806 14.913-22.948-27.231 2.86 20.348-18.308L.86 104.598l24.396-12.422L.244 81.047l22.701-4.822L4.17 62.593h27.38L14.32 41.328l26.447 7.082L29.63 23.414l23.712 13.681L49.06 10.07l19.36 19.347 2.862-27.212 11.604 20.086L90.058.233z" fill="#37E185"/></svg>
